svg/color/bsvbear.svg

<?xml version="1.0" encoding="UTF-8" ?>
<!DOCTYPE svg PUBLIC "-//W3C//DTD SVG 1.1//EN" "http://www.w3.org/Graphics/SVG/1.1/DTD/svg11.dtd">
<svg width="250pt" height="248pt" viewBox="0 0 250 248" version="1.1" xmlns="http://www.w3.org/2000/svg">
<g id="#ffffffff">
<path fill="#ffffff" opacity="1.00" d=" M 0.00 0.00 L 250.00 0.00 L 250.00 248.00 L 0.00 248.00 L 0.00 0.00 M 78.48 21.49 C 78.33 38.10 78.56 54.72 78.36 71.33 C 81.38 72.81 84.77 72.33 88.00 72.38 C 137.46 72.29 186.92 72.47 236.38 72.29 C 236.59 70.20 236.74 68.10 236.73 66.00 C 236.59 51.15 236.80 36.29 236.63 21.44 C 183.91 21.39 131.19 21.29 78.48 21.49 M 78.92 91.47 C 78.07 96.94 78.53 102.49 78.47 108.00 C 78.60 119.44 78.17 130.88 78.67 142.31 C 84.77 142.81 90.88 142.54 97.00 142.57 C 126.67 142.60 156.34 142.53 186.02 142.61 C 188.05 142.57 190.08 142.41 192.11 142.27 C 192.67 130.85 192.18 119.42 192.34 108.00 C 192.30 102.49 192.70 96.96 191.83 91.49 C 154.20 91.46 116.56 91.50 78.92 91.47 M 15.76 91.72 C 15.47 108.56 15.41 125.44 15.79 142.29 C 21.85 142.83 27.93 142.54 34.00 142.57 C 44.82 142.45 55.64 142.83 66.44 142.39 C 66.77 125.49 66.78 108.56 66.44 91.66 C 49.55 91.45 32.64 91.34 15.76 91.72 M 78.49 162.40 C 77.99 170.92 78.45 179.47 78.31 188.00 C 78.47 196.19 77.94 204.39 78.54 212.57 C 86.93 214.22 95.52 213.05 104.00 213.38 C 112.50 213.04 121.09 214.21 129.50 212.64 C 130.05 206.10 129.67 199.55 129.73 193.00 C 129.57 182.79 130.08 172.57 129.53 162.37 C 126.71 161.99 123.86 161.64 121.00 161.69 C 109.67 161.83 98.33 161.81 87.00 161.70 C 84.14 161.65 81.31 162.01 78.49 162.40 Z" />
</g>
<g id="#02a5c2ff">
<path fill="#02a5c2" opacity="1.00" d=" M 78.48 21.49 C 131.19 21.29 183.91 21.39 236.63 21.44 C 236.80 36.29 236.59 51.15 236.73 66.00 C 236.74 68.10 236.59 70.20 236.38 72.29 C 186.92 72.47 137.46 72.29 88.00 72.38 C 84.77 72.33 81.38 72.81 78.36 71.33 C 78.56 54.72 78.33 38.10 78.48 21.49 Z" />
</g>
<g id="#5fcadeff">
<path fill="#5fcade" opacity="1.00" d=" M 78.92 91.47 C 116.56 91.50 154.20 91.46 191.83 91.49 C 192.70 96.96 192.30 102.49 192.34 108.00 C 192.18 119.42 192.67 130.85 192.11 142.27 C 190.08 142.41 188.05 142.57 186.02 142.61 C 156.34 142.53 126.67 142.60 97.00 142.57 C 90.88 142.54 84.77 142.81 78.67 142.31 C 78.17 130.88 78.60 119.44 78.47 108.00 C 78.53 102.49 78.07 96.94 78.92 91.47 Z" />
<path fill="#5fcade" opacity="1.00" d=" M 15.76 91.72 C 32.64 91.34 49.55 91.45 66.44 91.66 C 66.78 108.56 66.77 125.49 66.44 142.39 C 55.64 142.83 44.82 142.45 34.00 142.57 C 27.93 142.54 21.85 142.83 15.79 142.29 C 15.41 125.44 15.47 108.56 15.76 91.72 Z" />
</g>
<g id="#abebf4ff">
<path fill="#abebf4" opacity="1.00" d=" M 78.49 162.40 C 81.31 162.01 84.14 161.65 87.00 161.70 C 98.33 161.81 109.67 161.83 121.00 161.69 C 123.86 161.64 126.71 161.99 129.53 162.37 C 130.08 172.57 129.57 182.79 129.73 193.00 C 129.67 199.55 130.05 206.10 129.50 212.64 C 121.09 214.21 112.50 213.04 104.00 213.38 C 95.52 213.05 86.93 214.22 78.54 212.57 C 77.94 204.39 78.47 196.19 78.31 188.00 C 78.45 179.47 77.99 170.92 78.49 162.40 Z" />
</g>
</svg>

<?xml version="1.0" encoding="utf-8"?>
<!-- Generator: Adobe Illustrator 26.0.3, SVG Export Plug-In . SVG Version: 6.00 Build 0)  -->
<svg version="1.1" id="Layer_1" xmlns="http://www.w3.org/2000/svg" xmlns:xlink="http://www.w3.org/1999/xlink" x="0px" y="0px"
	 viewBox="0 0 250 248" style="enable-background:new 0 0 250 248;" xml:space="preserve">
<style type="text/css">
	.st0{fill:#02A5C2;}
	.st1{fill:#5FCADE;}
	.st2{fill:#ABEBF4;}
</style>
<g id="_x23_02a5c2ff">
	<path class="st0" d="M78.5,21.5c52.7-0.2,105.4-0.1,158.1,0c0.2,14.9,0,29.7,0.1,44.6c0,2.1-0.1,4.2-0.3,6.3
		c-49.5,0.2-98.9,0-148.4,0.1c-3.2,0-6.6,0.4-9.6-1C78.6,54.7,78.3,38.1,78.5,21.5z"/>
</g>
<g id="_x23_5fcadeff">
	<path class="st1" d="M78.9,91.5c37.6,0,75.3,0,112.9,0c0.9,5.5,0.5,11,0.5,16.5c-0.2,11.4,0.3,22.9-0.2,34.3
		c-2,0.1-4.1,0.3-6.1,0.3c-29.7-0.1-59.4,0-89,0c-6.1,0-12.2,0.2-18.3-0.3c-0.5-11.4-0.1-22.9-0.2-34.3
		C78.5,102.5,78.1,96.9,78.9,91.5z"/>
	<path class="st1" d="M15.8,91.7c16.9-0.4,33.8-0.3,50.7-0.1c0.3,16.9,0.3,33.8,0,50.7c-10.8,0.4-21.6,0.1-32.4,0.2
		c-6.1,0-12.1,0.3-18.2-0.3C15.4,125.4,15.5,108.6,15.8,91.7z"/>
</g>
<g id="_x23_abebf4ff">
	<path class="st2" d="M78.5,162.4c2.8-0.4,5.7-0.8,8.5-0.7c11.3,0.1,22.7,0.1,34,0c2.9-0.1,5.7,0.3,8.5,0.7
		c0.6,10.2,0,20.4,0.2,30.6c-0.1,6.6,0.3,13.1-0.2,19.6c-8.4,1.6-17,0.4-25.5,0.7c-8.5-0.3-17.1,0.8-25.5-0.8
		c-0.6-8.2-0.1-16.4-0.2-24.6C78.4,179.5,78,170.9,78.5,162.4z"/>
</g>
</svg>
